Origami/24x24/apps/feh.svg

<svg width="24" height="24" version="1" xmlns="http://www.w3.org/2000/svg">
 <rect transform="matrix(0,-1,-1,0,0,0)" x="-22.5" y="-22" width="21" height="21" rx="1.05" ry="1.05" style="opacity:.2"/>
 <rect transform="matrix(0,-1,-1,0,0,0)" x="-22" y="-22" width="21" height="21" rx="1.05" ry="1.05" style="fill:#4f4f4f"/>
 <path d="m3 6.5v2 2 2 5h2v-5h3v-2h-3v-2h3v-2h-3-2zm6 0v11h2 3v-2h-3v-3h3v-2h-3v-2h3v-2h-3-2zm6 0v11h2v-5h1v5h2v-5-2-4h-2v4h-1v-4h-2z" style="opacity:.2"/>
 <rect x="3" y="6" width="2" height="11" style="fill:#df4545"/>
 <rect transform="rotate(90)" x="6" y="-8" width="2" height="5" style="fill:#df4545"/>
 <rect transform="rotate(90)" x="10" y="-8" width="2" height="5" style="fill:#df4545"/>
 <rect x="9" y="6" width="2" height="11" style="fill:#df4545"/>
 <rect transform="rotate(90)" x="6" y="-14" width="2" height="5" style="fill:#df4545"/>
 <rect transform="rotate(90)" x="10" y="-14" width="2" height="5" style="fill:#df4545"/>
 <rect x="15" y="6" width="2" height="11" style="fill:#df4545"/>
 <rect transform="rotate(90)" x="10" y="-20" width="2" height="5" style="fill:#df4545"/>
 <rect transform="rotate(90)" x="15" y="-14" width="2" height="5" style="fill:#df4545"/>
 <rect x="18" y="6" width="2" height="11" style="fill:#df4545"/>
 <path d="M 2.0507812,1 C 1.4690813,1 1,1.4690813 1,2.0507812 l 0,0.5 C 1,1.9690813 1.4690813,1.5 2.0507812,1.5 l 18.8984378,0 C 21.530919,1.5 22,1.9690813 22,2.5507812 l 0,-0.5 C 22,1.4690813 21.530919,1 20.949219,1 L 2.0507812,1 Z" style="fill:#ffffff;opacity:.1"/>
 <path d="m3 6v0.5h2 3v-0.5h-3-2zm6 0v0.5h2 3v-0.5h-3-2zm6 0v0.5h2v-0.5h-2zm3 0v0.5h2v-0.5h-2zm-13 4v0.5h3v-0.5h-3zm6 0v0.5h3v-0.5h-3zm6 0v0.5h1v-0.5h-1zm-6 5v0.5h3v-0.5h-3z" style="fill:#ffffff;opacity:.1"/>
</svg>

<svg xmlns="http://www.w3.org/2000/svg" width="24" height="24" version="1">
 <rect style="opacity:0.2" width="21" height="21" x="-22.5" y="-22" rx="1.05" ry="1.05" transform="matrix(0,-1,-1,0,0,0)"/>
 <rect style="fill:#4f4f4f" width="21" height="21" x="-22" y="-22" rx="1.05" ry="1.05" transform="matrix(0,-1,-1,0,0,0)"/>
 <path style="opacity:0.2" d="m 3,6.5 0,2 0,2 0,2 0,5 2,0 0,-5 3,0 0,-2 -3,0 0,-2 3,0 0,-2 -3,0 -2,0 z m 6,0 0,11 2,0 3,0 0,-2 -3,0 0,-3 3,0 0,-2 -3,0 0,-2 3,0 0,-2 -3,0 -2,0 z m 6,0 0,11 2,0 0,-5 1,0 0,5 2,0 0,-5 0,-2 0,-4 -2,0 0,4 -1,0 0,-4 -2,0 z"/>
 <rect style="fill:#df4545" width="2" height="11" x="3" y="6"/>
 <rect style="fill:#df4545" width="2" height="5" x="6" y="-8" transform="matrix(0,1,-1,0,0,0)"/>
 <rect style="fill:#df4545" width="2" height="5" x="10" y="-8" transform="matrix(0,1,-1,0,0,0)"/>
 <rect style="fill:#df4545" width="2" height="11" x="9" y="6"/>
 <rect style="fill:#df4545" width="2" height="5" x="6" y="-14" transform="matrix(0,1,-1,0,0,0)"/>
 <rect style="fill:#df4545" width="2" height="5" x="10" y="-14" transform="matrix(0,1,-1,0,0,0)"/>
 <rect style="fill:#df4545" width="2" height="11" x="15" y="6"/>
 <rect style="fill:#df4545" width="2" height="5" x="10" y="-20" transform="matrix(0,1,-1,0,0,0)"/>
 <rect style="fill:#df4545" width="2" height="5" x="15" y="-14" transform="matrix(0,1,-1,0,0,0)"/>
 <rect style="fill:#df4545" width="2" height="11" x="18" y="6"/>
 <path style="opacity:0.1;fill:#ffffff" d="M 2.0507812,1 C 1.4690813,1 1,1.4690813 1,2.0507812 l 0,0.5 C 1,1.9690813 1.4690813,1.5 2.0507812,1.5 l 18.8984378,0 C 21.530919,1.5 22,1.9690813 22,2.5507812 l 0,-0.5 C 22,1.4690813 21.530919,1 20.949219,1 L 2.0507812,1 Z"/>
 <path style="opacity:0.1;fill:#ffffff" d="M 3 6 L 3 6.5 L 5 6.5 L 8 6.5 L 8 6 L 5 6 L 3 6 z M 9 6 L 9 6.5 L 11 6.5 L 14 6.5 L 14 6 L 11 6 L 9 6 z M 15 6 L 15 6.5 L 17 6.5 L 17 6 L 15 6 z M 18 6 L 18 6.5 L 20 6.5 L 20 6 L 18 6 z M 5 10 L 5 10.5 L 8 10.5 L 8 10 L 5 10 z M 11 10 L 11 10.5 L 14 10.5 L 14 10 L 11 10 z M 17 10 L 17 10.5 L 18 10.5 L 18 10 L 17 10 z M 11 15 L 11 15.5 L 14 15.5 L 14 15 L 11 15 z"/>
</svg>
